X:0889
T:Miss Grant's Strathsy.
M:C
L:1/8
Q:1/4=120
I: :: ||
Z:Jack Campin * www.campin.me.uk * 2009
K:D
B|AF`DA (d/e/f)   f>e|dA/d/ B/A/G/F/ FEEB|ADFA (d/e/f) Tf>e     |d>BcA dD```````D:|
A|d>fe>g f/e/f/g/ ad |Bd````Ad       feeg|gdge  a>f`````ed      |Bd`eg ec```````dA|
  df`eg  f/e/f/g/ ad |Bd````Ad       feeg|fdeg  ad      g/f/e/d/|Bd`gb a/g/f/e/ d|]
<end>
<start>
